Resources/Icons/PCGEx_Editor_RotOrder_XY.svg

<?xml version="1.0" encoding="UTF-8"?>
<svg id="icons" xmlns="http://www.w3.org/2000/svg" viewBox="0 0 100 100">
  <defs>
    <style>
      .cls-1 {
        fill: #cb2600;
      }

      .cls-2 {
        fill: none;
        opacity: .5;
        stroke: #000;
        stroke-miterlimit: 10;
        stroke-width: 5px;
      }

      .cls-3 {
        fill: #67a900;
      }
    </style>
  </defs>
  <line class="cls-2" x1="30.25" y1="50.03" x2="69.78" y2="50.03"/>
  <g>
    <path d="M25.46,67.18v-.05c-.52.85-1.37,1.93-3.01,1.93s-3.2-1.5-3.2-3.05c0-.52.24-1.22.47-1.6l8.13-12.96-7.47-11.79c-.23-.47-.37-1.08-.37-1.6,0-1.5,1.46-2.96,3.15-2.96,1.45,0,2.58,1.03,3.24,2.16l5.31,8.73,5.31-8.73c.61-.89,1.64-2.16,3.28-2.16s3.1,1.36,3.1,3.01c0,.47-.19,1.03-.42,1.55l-7.42,11.79,8.13,12.96c.23.38.47,1.08.47,1.6,0,1.55-1.55,3.05-3.14,3.05s-2.49-.99-3.06-1.88l-6.24-10.33-6.24,10.33Z"/>
    <path class="cls-1" d="M24.1,65.13v-.05c-.52.85-1.37,1.93-3.01,1.93s-3.2-1.5-3.2-3.05c0-.52.24-1.22.47-1.6l8.13-12.96-7.47-11.79c-.23-.47-.37-1.08-.37-1.6,0-1.5,1.46-2.96,3.15-2.96,1.45,0,2.58,1.03,3.24,2.16l5.31,8.73,5.31-8.73c.61-.89,1.64-2.16,3.28-2.16s3.1,1.36,3.1,3.01c0,.47-.19,1.03-.42,1.55l-7.42,11.79,8.13,12.96c.23.38.47,1.08.47,1.6,0,1.55-1.55,3.05-3.14,3.05s-2.49-.99-3.06-1.88l-6.24-10.33-6.24,10.33Z"/>
  </g>
  <g>
    <path d="M66.45,65.96v-10.28l-8.27-16.15c-.14-.33-.28-.89-.28-1.36,0-1.64,1.64-3.05,3.33-3.05.99,0,2.11.42,2.68,1.41l5.87,11.65,5.82-11.65c.57-.99,1.69-1.41,2.73-1.41,1.69,0,3.33,1.41,3.33,3.05,0,.42-.19.94-.33,1.36l-8.22,16.15v10.28c0,1.64-1.45,3.1-3.33,3.1s-3.33-1.41-3.33-3.1Z"/>
    <path class="cls-3" d="M65.08,63.91v-10.28l-8.27-16.15c-.14-.33-.28-.89-.28-1.36,0-1.64,1.64-3.05,3.33-3.05.99,0,2.11.42,2.68,1.41l5.87,11.65,5.82-11.65c.57-.99,1.69-1.41,2.73-1.41,1.69,0,3.33,1.41,3.33,3.05,0,.42-.19.94-.33,1.36l-8.22,16.15v10.28c0,1.64-1.45,3.1-3.33,3.1s-3.33-1.41-3.33-3.1Z"/>
  </g>
</svg>

<svg id="icons" xmlns="http://www.w3.org/2000/svg" viewBox="0 0 100 100">
    <defs>
        <style>
            .cls-1{fill:none;stroke:#000;stroke-miterlimit:10;stroke-width:5px;opacity:0.5;}.cls-2{fill:#cb2600;}.cls-3{fill:#67a900;}
        </style>
    </defs>
    <line class="cls-1" x1="30.25" y1="50.03" x2="69.78" y2="50.03"/>
    <path d="M25.46,67.18v-.05a3.43,3.43,0,0,1-3,1.93A3.28,3.28,0,0,1,19.26,66a3.57,3.57,0,0,1,.47-1.59l8.12-13L20.39,39.66a3.72,3.72,0,0,1-.38-1.6,3.19,3.19,0,0,1,3.15-3,4,4,0,0,1,3.24,2.16L31.71,46,37,37.26A4.17,4.17,0,0,1,40.3,35.1a3.12,3.12,0,0,1,3.1,3A4,4,0,0,1,43,39.66L35.56,51.45l8.12,13A3.57,3.57,0,0,1,44.15,66,3.3,3.3,0,0,1,41,69.06a3.45,3.45,0,0,1-3-1.88L31.71,56.85Z"/>
    <path class="cls-2"
          d="M24.1,65.13v0a3.45,3.45,0,0,1-3,1.93A3.28,3.28,0,0,1,17.89,64a3.57,3.57,0,0,1,.47-1.59l8.13-13L19,37.61a3.86,3.86,0,0,1-.37-1.6,3.17,3.17,0,0,1,3.14-2.95A3.91,3.91,0,0,1,25,35.22L30.34,44l5.31-8.73a4.12,4.12,0,0,1,3.28-2.16,3.11,3.11,0,0,1,3.1,3,4.14,4.14,0,0,1-.42,1.55L34.19,49.4l8.12,13A3.44,3.44,0,0,1,42.78,64,3.3,3.3,0,0,1,39.64,67a3.47,3.47,0,0,1-3.06-1.88L30.34,54.8Z"/>
    <path d="M66.45,66V55.67L58.18,39.52a3.9,3.9,0,0,1-.28-1.36,3.33,3.33,0,0,1,3.33-3.06,3.06,3.06,0,0,1,2.68,1.41l5.87,11.65L75.6,36.51a3.11,3.11,0,0,1,2.73-1.41,3.33,3.33,0,0,1,3.33,3.06,4.5,4.5,0,0,1-.33,1.36L73.11,55.67V66a3.24,3.24,0,0,1-3.33,3.1A3.21,3.21,0,0,1,66.45,66Z"/>
    <path class="cls-3"
          d="M65.08,63.91V53.62L56.82,37.47a3.69,3.69,0,0,1-.29-1.36,3.33,3.33,0,0,1,3.34-3,3,3,0,0,1,2.67,1.4l5.88,11.65,5.82-11.65A3.07,3.07,0,0,1,77,33.06a3.33,3.33,0,0,1,3.34,3A4.82,4.82,0,0,1,80,37.47L71.75,53.62V63.91a3.34,3.34,0,0,1-6.67,0Z"/>
</svg>
